icons/Map/signal-tower-fill.svg

<svg viewBox="0 0 24 24" xmlns="http://www.w3.org/2000/svg"><path d="M6.11629 20.0868C3.62137 18.2684 2 15.3236 2 12C2 6.47715 6.47715 2 12 2C17.5228 2 22 6.47715 22 12C22 15.3236 20.3786 18.2684 17.8837 20.0868L16.8692 18.348C18.7729 16.8856 20 14.5861 20 12C20 7.58172 16.4183 4 12 4C7.58172 4 4 7.58172 4 12C4 14.5861 5.2271 16.8856 7.1308 18.348L6.11629 20.0868ZM8.14965 16.6018C6.83562 15.5012 6 13.8482 6 12C6 8.68629 8.68629 6 12 6C15.3137 6 18 8.68629 18 12C18 13.8482 17.1644 15.5012 15.8503 16.6018L14.8203 14.8365C15.549 14.112 16 13.1087 16 12C16 9.79086 14.2091 8 12 8C9.79086 8 8 9.79086 8 12C8 13.1087 8.45105 14.112 9.17965 14.8365L8.14965 16.6018ZM11 13H13L14 22H10L11 13Z"/></svg>

<svg xmlns="http://www.w3.org/2000/svg" viewBox="0 0 24 24">
    <g>
        <path fill="none" d="M0 0h24v24H0z"/>
        <path d="M6.116 20.087A9.986 9.986 0 0 1 2 12C2 6.477 6.477 2 12 2s10 4.477 10 10a9.986 9.986 0 0 1-4.116 8.087l-1.015-1.739a8 8 0 1 0-9.738 0l-1.015 1.739zm2.034-3.485a6 6 0 1 1 7.7 0l-1.03-1.766a4 4 0 1 0-5.64 0l-1.03 1.766zM11 13h2l1 9h-4l1-9z"/>
    </g>
</svg>
